web-magapay/image/payment-vector/boleto-cartoes.svg

<svg xmlns="http://www.w3.org/2000/svg" xml:space="preserve" width="40" height="25" version="1.1" viewBox="0 0 1008 643" id="bol-card" shape-rendering="geometricPrecision" text-rendering="geometricPrecision" image-rendering="optimizeQuality" fill-rule="evenodd" clip-rule="evenodd"><defs><style>#bol-card .fil3{fill:#e0995e}</style></defs><g id="Layer_x0020_1"><g id="_730172856"><path class="fil0 str0" d="M990 62v511c0 35-12 52-40 52H60c-29 0-43-17-46-52V65c0-35 14-52 46-52l890 3c26 3 43 14 40 46z" fill="#e4e4e4" stroke="#a9a6aa" stroke-width="24.47"/><path class="fil1" d="M873 529c-9 31-42 48-73 39L355 432c-31-9-48-42-39-73l85-278c9-31 42-48 73-39l445 136c31 9 48 42 39 73l-85 278z" fill="#fff"/><path class="fil2" transform="rotate(16.966 -168.087 1372.727) scale(.5498)" fill="#4f5d73" d="M0 0h1058v159H0z"/><circle class="fil3" transform="rotate(16.966 -1137.454 2524.264) scale(.5498)" r="53"/><circle class="fil3" transform="rotate(16.967 -1195.6 2914.328) scale(.5498)" r="53"/><circle class="fil3" transform="rotate(16.966 -1079.263 2134.128) scale(.5498)" r="53"/><rect class="fil4 str1" x="64" y="196" width="522" height="380" rx="25" ry="34" fill="#fefefe" stroke="#afa8b1" stroke-width="8.47"/><path class="fil5 str2" d="M135 262v248m52-248v248m51-248v248m38-248v248m69-248v248m29-248v248m48-248v248m57-248v248m45-248v248" fill="none" stroke="#1f1b20" stroke-width="16.93"/></g></g></svg>

<svg xmlns="http://www.w3.org/2000/svg" xml:space="preserve" width="40" height="25" version="1.1" viewBox="0 0 1008 643" id="bol-card" shape-rendering="geometricPrecision" text-rendering="geometricPrecision" image-rendering="optimizeQuality" fill-rule="evenodd" clip-rule="evenodd"><defs><style>#bol-card .str2{stroke:#1f1b20;stroke-width:16.93}#bol-card .fil5{fill:none}#bol-card .fil3{fill:#e0995e}</style></defs><g id="Layer_x0020_1"><g id="_730172856"><path class="fil0 str0" d="M990 62v511c0 35-12 52-40 52H60c-29 0-43-17-46-52V65c0-35 14-52 46-52l890 3c26 3 43 14 40 46z" fill="#e4e4e4" stroke="#a9a6aa" stroke-width="24.47"/><path class="fil1" d="M873 529c-9 31-42 48-73 39L355 432c-31-9-48-42-39-73l85-278c9-31 42-48 73-39l445 136c31 9 48 42 39 73l-85 278z" fill="#fff"/><path class="fil2" transform="scale(.5498) rotate(16.966 -305.723 2496.775)" fill="#4f5d73" d="M0 0h1058v159H0z"/><circle class="fil3" transform="scale(.5498) rotate(16.966 -2068.85 4591.24)" r="53"/><circle class="fil3" transform="matrix(.52587 .16044 -.16044 .52587 798.407 475.74)" r="53"/><circle class="fil3" transform="scale(.5498) rotate(16.966 -1963.011 3881.645)" r="53"/><g><rect class="fil4 str1" x="64" y="196" width="522" height="380" rx="25" ry="34" fill="#fefefe" stroke="#afa8b1" stroke-width="8.47"/><path class="fil5 str2" d="M135 262v248M187 262v248M238 262v248M276 262v248M345 262v248M374 262v248M422 262v248M479 262v248M524 262v248"/></g></g></g></svg>
